icons/svg/16x16/device mobil/outline.svg

<svg xmlns="http://www.w3.org/2000/svg" width="16" height="16" viewBox="0 0 16 16">
  <path fill-rule="evenodd" d="M8.6,12 L7.401,12 C7.179,12 7,11.821 7,11.6 L7,10.4 C7,10.179 7.179,10 7.401,10 L8.6,10 C8.822,10 9,10.179 9,10.4 L9,11.6 C9,11.821 8.822,12 8.6,12 L8.6,12 Z M5,14 L11,14 L11,2 L5,2 L5,14 Z M11,0 L5,0 C3.896,0 3,0.896 3,2 L3,14 C3,15.104 3.896,16 5,16 L11,16 C12.105,16 13,15.104 13,14 L13,2 C13,0.896 12.105,0 11,0 L11,0 Z"/>
</svg>

<svg width="16" height="16" fill="none" xmlns="http://www.w3.org/2000/svg">
  <path fill-rule="evenodd" clip-rule="evenodd" d="M8.6 12H7.401A.4.4 0 017 11.6v-1.2a.4.4 0 01.401-.4H8.6a.4.4 0 01.4.4v1.2a.4.4 0 01-.4.4zM5 14h6V2H5v12zm6-14H5a2 2 0 00-2 2v12a2 2 0 002 2h6a2 2 0 002-2V2a2 2 0 00-2-2z" fill="#000"/>
</svg>
